icon/pk/honey.svg

<svg viewBox="0 0 48 48" fill="none" xmlns="http://www.w3.org/2000/svg" height="1em" width="1em">
  <path d="M14.6126 4.84251L9.92332 9.53175C8.62842 10.8266 8.62842 12.9261 9.92332 14.221C11.2182 15.5159 13.3177 15.5159 14.6126 14.221L19.3018 9.53175C20.5967 8.23685 20.5967 6.13741 19.3018 4.84251C18.0069 3.54761 15.9074 3.54762 14.6126 4.84251Z" fill="#2F88FF" stroke="black" stroke-width="4"/>
  <path d="M24.7734 13.4397L18.521 19.692C17.2261 20.9869 17.2261 23.0863 18.521 24.3812C19.8159 25.6761 21.9154 25.6761 23.2103 24.3812L29.4626 18.1289C30.7575 16.834 30.7575 14.7346 29.4626 13.4397C28.1677 12.1448 26.0683 12.1448 24.7734 13.4397Z" fill="#2F88FF" stroke="black" stroke-width="4"/>
  <path d="M28.6804 18.9104L42.4504 32.6803C43.4781 33.708 43.2615 35.5909 41.9666 36.8857C40.6717 38.1806 38.7888 38.3973 37.7611 37.3696L23.9912 23.5996" stroke="black" stroke-width="4"/>
  <path d="M22.4284 6.40575L11.4868 17.3473C10.1919 18.6422 10.1919 20.7416 11.4868 22.0365C12.7817 23.3314 14.8812 23.3314 16.1761 22.0365L27.1176 11.0949C28.4125 9.80009 28.4125 7.70065 27.1176 6.40575C25.8227 5.11085 23.7233 5.11085 22.4284 6.40575Z" fill="#2F88FF" stroke="black" stroke-width="4"/>
  <path d="M13.8542 23.1421C15.2778 27.5788 15.0407 30.8568 13.1431 32.976C10.2966 36.1547 10.7393 44.1421 17.1702 44.1421C23.6011 44.1421 25.4901 36.1547 20.0423 33.3527" stroke="black" stroke-width="4" stroke-linecap="round"/>
</svg>

<svg width="48" height="48" fill="none" xmlns="http://www.w3.org/2000/svg"><path d="m14.613 4.843-4.69 4.689a3.316 3.316 0 1 0 4.69 4.689l4.689-4.69a3.316 3.316 0 0 0-4.69-4.688ZM24.773 13.44l-6.252 6.252a3.316 3.316 0 1 0 4.69 4.69l6.252-6.253a3.316 3.316 0 1 0-4.69-4.69Z" fill="#2F88FF" stroke="#000" stroke-width="4"/><path d="m28.68 18.91 13.77 13.77c1.028 1.028.811 2.91-.483 4.206-1.295 1.295-3.178 1.511-4.206.484L23.991 23.6" stroke="#000" stroke-width="4"/><path d="M22.428 6.406 11.487 17.347a3.316 3.316 0 1 0 4.69 4.69l10.94-10.942a3.316 3.316 0 1 0-4.689-4.69Z" fill="#2F88FF" stroke="#000" stroke-width="4"/><path d="M13.854 23.142c1.424 4.437 1.187 7.715-.71 9.834-2.847 3.179-2.405 11.166 4.026 11.166 6.431 0 8.32-7.987 2.872-10.79" stroke="#000" stroke-width="4" stroke-linecap="round"/></svg>
